toaster-oven.svg

<svg fill="currentColor" viewBox="0 0 24 24"><path d="M4 5a2 2 0 0 0-2 2v10a2 2 0 0 0 2 2h16a2 2 0 0 0 2-2V7a2 2 0 0 0-2-2zm0 2h12v10H4zm15 0a1 1 0 0 1 1 1 1 1 0 0 1-1 1 1 1 0 0 1-1-1 1 1 0 0 1 1-1M6 9v2h8V9zm13 2a1 1 0 0 1 1 1 1 1 0 0 1-1 1 1 1 0 0 1-1-1 1 1 0 0 1 1-1"/></svg>

<svg  viewBox="0 0 24 24" fill="currentColor"><path  d="M4,5A2,2 0 0,0 2,7V17A2,2 0 0,0 4,19H20A2,2 0 0,0 22,17V7A2,2 0 0,0 20,5H4M4,7H16V17H4V7M19,7A1,1 0 0,1 20,8A1,1 0 0,1 19,9A1,1 0 0,1 18,8A1,1 0 0,1 19,7M6,9V11H14V9H6M19,11A1,1 0 0,1 20,12A1,1 0 0,1 19,13A1,1 0 0,1 18,12A1,1 0 0,1 19,11Z"/></svg>
